src/pos-icons/home-lightbulb-outline.svg

<svg height="24" viewBox="0 0 24 24" width="24" xmlns="http://www.w3.org/2000/svg"><path d="m12 2-10 10h2v9h16v-9h2m-10-7 6 6v8h-12v-8m7.5 3.58v1.42h-3v-1.42c-1.43-.83-1.93-2.66-1.1-4.08.83-1.45 2.67-1.94 4.1-1.12s1.93 2.67 1.1 4.12c-.26.44-.64.82-1.1 1.08m-.5 2.42h-2v1h2z"/></svg>

<?xml version="1.0" encoding="UTF-8"?><!DOCTYPE svg PUBLIC "-//W3C//DTD SVG 1.1//EN" "http://www.w3.org/Graphics/SVG/1.1/DTD/svg11.dtd"><svg xmlns="http://www.w3.org/2000/svg" xmlns:xlink="http://www.w3.org/1999/xlink" version="1.1" id="mdi-home-lightbulb-outline" width="24" height="24" viewBox="0 0 24 24"><path d="M12 2L2 12H4V21H20V12H22M12 5L18 11V19H6V11M13.5 14.58V16H10.5V14.58C9.07 13.75 8.57 11.92 9.4 10.5C10.23 9.05 12.07 8.56 13.5 9.38S15.43 12.05 14.6 13.5C14.34 13.94 13.96 14.32 13.5 14.58M13 17H11V18H13V17Z" /></svg>
